X: 31380
T: Paddy O'Rafferty's
R: jig
M: 6/8
K: Amajor
|:e3 ~f3|efe edB|Ace agf|ecB AFE|
e3 ~f3|efe efg|aec BAB|1 cAG AB/c/d:|2 cAG A2F||
|:Ecc Edd|Ecc BAF|Ecc Edd|~c2B ~A2F|
Ecc Edd|Ecc efg|aec BAB|1 cAG A2F:|2 cAG AB/c/d||

